dist/images/geo.svg

<?xml version="1.0" encoding="UTF-8" standalone="no"?><svg width="32" height="49" viewBox="0 0 32 49" fill="none" xmlns="http://www.w3.org/2000/svg">
<path fill-rule="evenodd" clip-rule="evenodd" d="M28 16.7871C28 18.0878 27.3255 20.5201 25.8378 23.9061C24.4224 27.1279 22.504 30.7081 20.54 34.0937C18.941 36.8501 17.3382 39.4326 16 41.525C14.6618 39.4326 13.059 36.8501 11.46 34.0937C9.49599 30.7081 7.57762 27.1279 6.16215 23.9061C4.67452 20.5201 4 18.0878 4 16.7871C4 10.1597 9.37258 4.78711 16 4.78711C22.6274 4.78711 28 10.1597 28 16.7871ZM32 16.7871C32 23.4662 22.8592 38.3302 18.3956 45.1903C16.9538 47.4063 16 48.7871 16 48.7871C16 48.7871 15.0462 47.4063 13.6044 45.1903C9.14079 38.3302 0 23.4662 0 16.7871C0 7.95055 7.16344 0.787109 16 0.787109C24.8366 0.787109 32 7.95055 32 16.7871ZM21 18.7871C21 21.5485 18.7614 23.7871 16 23.7871C13.2386 23.7871 11 21.5485 11 18.7871C11 16.0257 13.2386 13.7871 16 13.7871C18.7614 13.7871 21 16.0257 21 18.7871ZM25 18.7871C25 23.7577 20.9706 27.7871 16 27.7871C11.0294 27.7871 7 23.7577 7 18.7871C7 13.8165 11.0294 9.78711 16 9.78711C20.9706 9.78711 25 13.8165 25 18.7871Z" fill="#FFEED3"/>
</svg>

<svg width="32" height="49" fill="none" xmlns="http://www.w3.org/2000/svg"><path fill-rule="evenodd" clip-rule="evenodd" d="M28 16.787c0 1.3-.674 3.733-2.162 7.12-1.416 3.22-3.334 6.801-5.298 10.187A203.771 203.771 0 0116 41.525a203.771 203.771 0 01-4.54-7.431c-1.964-3.386-3.882-6.966-5.298-10.188C4.675 20.52 4 18.088 4 16.787c0-6.627 5.373-12 12-12s12 5.373 12 12zm4 0c0 6.68-9.14 21.543-13.604 28.403C16.954 47.406 16 48.787 16 48.787s-.954-1.38-2.396-3.597C9.141 38.33 0 23.466 0 16.787c0-8.836 7.163-16 16-16s16 7.164 16 16zm-11 2a5 5 0 11-10 0 5 5 0 0110 0zm4 0a9 9 0 11-18 0 9 9 0 0118 0z" fill="#FFEED3"/></svg>
